build/assets/images/proyectos/logos/logo-cetelem.svg

<svg width="200" height="200" viewBox="0 0 200 200" fill="none" xmlns="http://www.w3.org/2000/svg">
<rect width="200" height="200" fill="white"/>
<g clip-path="url(#clip0)">
<path fill-rule="evenodd" clip-rule="evenodd" d="M169.782 126.832H179.751V116.863H169.782V126.832ZM177.091 120.281C177.292 120.182 177.491 120.083 177.789 119.907C178.018 120.253 178.077 121.05 178.085 121.685C178.29 121.281 178.533 119.772 178.427 119.497C178.743 119.292 178.792 119.193 178.855 119.067L178.855 119.067C178.866 119.043 178.878 119.019 178.893 118.993C178.809 119 178.733 119.006 178.663 119.011C178.427 119.029 178.266 119.041 178.11 119.091C177.598 118.776 176.534 118.453 175.668 118.386C175.935 118.497 177.032 119.092 177.171 119.282C176.584 119.363 175.479 119.696 174.92 119.992C175.562 119.848 176.462 119.776 177.077 119.746C176.835 120.097 176.7 120.279 176.313 120.701C176.657 120.494 176.875 120.387 177.091 120.281L177.091 120.281L177.091 120.281ZM172.383 124.777C172.663 125.041 172.916 125.194 173.275 125.326C172.903 125.316 172.621 125.267 172.291 125.17C172.267 125.402 172.281 125.581 172.345 125.803C172.082 125.542 171.92 125.311 171.76 124.967C171.468 124.836 171.254 124.712 170.994 124.549C171.179 124.465 171.342 124.405 171.566 124.345C171.495 123.944 171.517 123.583 171.571 123.08C171.675 123.557 171.766 123.894 171.97 124.254C172.22 124.206 172.43 124.172 172.72 124.131C172.562 124.361 172.466 124.545 172.383 124.777ZM174.195 120.303C174.084 120.442 173.954 120.714 173.918 120.835C174.835 120.962 175.571 121.435 175.571 121.435C174.769 121.29 174.345 121.308 174.051 121.334C173.75 121.362 173.694 121.403 173.694 121.403C173.481 121.872 173.349 122.683 173.349 122.683C173.203 122.338 172.993 121.631 172.993 121.631C172.589 121.847 171.664 122.721 171.664 122.721C172.174 121.696 172.689 121.229 172.689 121.229C172.515 121.05 172.047 120.962 171.706 120.943C171.882 120.869 172.34 120.786 172.687 120.774C173.034 120.758 173.248 120.781 173.248 120.781C173.558 120.536 174.031 120.326 174.195 120.303ZM174.685 125.286C174.863 125.086 175.001 124.911 175.161 124.689C175.162 124.71 175.164 124.729 175.165 124.749C175.173 124.875 175.179 124.977 175.193 125.093C175.487 124.955 175.705 124.825 175.96 124.645C175.721 124.886 175.512 125.089 175.223 125.315C175.249 125.437 175.267 125.504 175.294 125.598C175.183 125.619 175.033 125.63 174.874 125.624C174.574 125.803 174.159 125.936 173.845 126.014C174.031 125.897 174.195 125.771 174.384 125.592C174.195 125.553 174.016 125.494 173.834 125.403C174.129 125.402 174.375 125.37 174.685 125.286Z" fill="black"/>
<path fill-rule="evenodd" clip-rule="evenodd" d="M117.82 121.396C117.82 121.637 117.802 121.879 117.802 122.118C117.802 122.295 117.811 122.43 117.82 122.561C117.857 122.566 118.048 122.566 118.171 122.566C118.557 122.566 119.091 122.46 119.091 121.962C119.091 121.477 118.543 121.39 118.129 121.39C118.076 121.39 117.873 121.39 117.82 121.396ZM118.475 120.887C119.267 120.887 120.226 121.108 120.226 121.962C120.226 122.71 119.546 123.082 118.171 123.082C118.088 123.082 117.865 123.082 117.802 123.076C117.829 123.587 117.824 124.205 117.857 124.553H116.657C116.705 124.05 116.718 123.221 116.718 122.629C116.718 122.102 116.705 121.234 116.657 120.887H118.475ZM113.621 120.887C113.601 121.134 113.592 121.385 113.592 121.643V123.39C113.592 123.865 113.744 124.144 114.214 124.144C114.619 124.144 115.018 123.982 115.018 123.235V121.456C115.018 121.084 115.01 121.043 114.987 120.887H115.996C115.957 121.207 115.957 121.805 115.957 122.399V123.44C115.957 124.282 115.367 124.648 114.198 124.648C113.139 124.648 112.49 124.423 112.49 123.383V122.045C112.49 121.7 112.475 121.147 112.436 120.887H113.621ZM122.531 121.261C122.004 121.261 121.673 121.779 121.673 122.726C121.673 123.67 122.004 124.177 122.531 124.177C123.056 124.177 123.379 123.67 123.379 122.726C123.379 121.779 123.056 121.261 122.531 121.261ZM122.531 124.658C121.392 124.658 120.539 123.872 120.539 122.726C120.539 121.568 121.392 120.791 122.531 120.791C123.665 120.791 124.518 121.568 124.518 122.726C124.518 123.872 123.665 124.658 122.531 124.658ZM109.956 120.887C110.759 120.887 111.714 121.172 111.714 122.024C111.714 122.478 111.377 122.805 110.845 123.015C110.955 123.207 111.843 124.361 112.019 124.553H110.712C110.481 124.114 110.038 123.351 109.601 122.702C110.128 122.772 110.58 122.522 110.58 122.016C110.58 121.53 110.024 121.39 109.755 121.39C109.628 121.39 109.403 121.39 109.317 121.396C109.299 121.845 109.291 122.383 109.291 122.629C109.291 122.945 109.291 123.999 109.354 124.553H108.134C108.194 124.011 108.208 123.362 108.208 122.629C108.208 122.011 108.198 121.261 108.145 120.887H109.956ZM107.408 122.772C107.388 123.131 107.366 123.893 107.355 124.331C106.961 124.531 106.342 124.648 105.747 124.648C104.389 124.648 103.519 123.793 103.519 122.738C103.519 121.629 104.43 120.791 105.916 120.791C106.255 120.791 106.764 120.845 107.122 120.932L106.86 121.657C106.606 121.496 106.186 121.372 105.902 121.372C105.047 121.372 104.741 122.132 104.741 122.746C104.741 123.771 105.291 124.107 105.909 124.107C105.98 124.107 106.217 124.099 106.295 124.078C106.295 123.635 106.288 123.072 106.255 122.772H107.408ZM164.905 120.792C165.374 120.792 165.828 120.859 166.114 120.948V121.881C165.713 121.65 165.32 121.45 164.799 121.45C164.387 121.45 164.357 121.617 164.357 121.74C164.357 122.358 166.44 122.366 166.44 123.476C166.44 124.195 165.767 124.649 164.649 124.649C164.146 124.649 163.671 124.548 163.347 124.429V123.539C164.113 123.901 164.52 124.018 164.874 124.018C165.158 124.018 165.369 123.888 165.369 123.641C165.369 122.94 163.294 123.008 163.294 121.819C163.294 121.168 163.945 120.792 164.905 120.792ZM161.3 123.195C161.157 122.84 160.96 122.4 160.865 122.092C160.765 122.406 160.545 122.886 160.438 123.195C160.573 123.201 160.755 123.208 160.879 123.208C161.05 123.208 161.135 123.201 161.3 123.195ZM161.4 120.887C161.535 121.32 162.744 123.962 163.022 124.554H161.821C161.774 124.41 161.677 124.213 161.502 123.75C161.319 123.743 161.13 123.743 160.879 123.743C160.634 123.743 160.456 123.75 160.261 123.757C160.152 124.059 160.057 124.298 159.969 124.554H158.927C159.127 124.099 160.332 121.473 160.545 120.887H161.4ZM156.634 121.351C156.455 121.351 156.281 121.362 156.193 121.377C156.172 121.853 156.165 122.085 156.165 122.63C156.165 123.29 156.165 123.533 156.193 124.059H156.722C157.345 124.059 157.643 123.873 157.643 123.494C157.643 123.072 157.258 122.873 156.747 122.873H156.443L156.652 122.32H156.876C157.135 122.32 157.479 122.184 157.479 121.853C157.479 121.498 157.161 121.351 156.634 121.351ZM157.189 120.887C157.865 120.887 158.606 121.134 158.606 121.758C158.606 122.096 158.313 122.406 157.88 122.555C158.459 122.766 158.789 123.1 158.789 123.533C158.789 124.298 157.865 124.554 156.998 124.554H155.012C155.059 124.078 155.073 123.391 155.073 122.63C155.073 122.128 155.065 121.362 155.017 120.887H157.189ZM154.225 120.887C154.197 121.303 154.178 122.283 154.178 122.636C154.178 122.961 154.178 124.05 154.225 124.554H153.019C153.08 123.999 153.085 122.946 153.085 122.636C153.085 122.289 153.066 121.303 153.041 120.887H154.225ZM150.483 120.887C151.282 120.887 152.239 121.174 152.239 122.025C152.239 122.479 151.9 122.805 151.371 123.016C151.479 123.208 152.366 124.362 152.543 124.554H151.236C151.004 124.114 150.563 123.351 150.13 122.703C150.652 122.773 151.108 122.523 151.108 122.018C151.108 121.532 150.551 121.392 150.279 121.392C150.157 121.392 149.925 121.392 149.843 121.397C149.825 121.846 149.818 122.384 149.818 122.63C149.818 122.946 149.818 123.999 149.876 124.554H148.659C148.719 124.013 148.732 123.363 148.732 122.63C148.732 122.012 148.725 121.263 148.673 120.887H150.483ZM146.516 123.195C146.372 122.84 146.174 122.4 146.081 122.092C145.979 122.406 145.764 122.886 145.653 123.195C145.79 123.201 145.972 123.208 146.095 123.208C146.263 123.208 146.354 123.201 146.516 123.195ZM146.616 120.887C146.753 121.32 147.959 123.962 148.237 124.554H147.039C146.991 124.41 146.896 124.213 146.719 123.75C146.536 123.743 146.346 123.743 146.095 123.743C145.851 123.743 145.674 123.75 145.476 123.757C145.369 124.059 145.275 124.298 145.186 124.554H144.143C144.346 124.099 145.546 121.473 145.764 120.887H146.616ZM142.075 121.397C142.075 121.639 142.063 121.881 142.063 122.12C142.063 122.294 142.068 122.43 142.075 122.562C142.116 122.567 142.306 122.567 142.429 122.567C142.815 122.567 143.352 122.461 143.352 121.963C143.352 121.478 142.802 121.392 142.387 121.392C142.334 121.392 142.132 121.392 142.075 121.397ZM142.733 120.887C143.528 120.887 144.484 121.109 144.484 121.963C144.484 122.711 143.805 123.083 142.429 123.083C142.348 123.083 142.124 123.083 142.063 123.078C142.089 123.588 142.083 124.205 142.116 124.554H140.917C140.964 124.05 140.977 123.222 140.977 122.63C140.977 122.103 140.964 121.235 140.917 120.887H142.733ZM136.542 121.397C136.542 121.639 136.529 121.881 136.529 122.12C136.529 122.294 136.536 122.43 136.542 122.562C136.583 122.567 136.773 122.567 136.895 122.567C137.282 122.567 137.816 122.461 137.816 121.963C137.816 121.478 137.266 121.392 136.853 121.392C136.8 121.392 136.596 121.392 136.542 121.397ZM137.199 120.887C137.993 120.887 138.951 121.109 138.951 121.963C138.951 122.711 138.272 123.083 136.895 123.083C136.812 123.083 136.591 123.083 136.529 123.078C136.555 123.588 136.55 124.205 136.583 124.554H135.382C135.431 124.05 135.443 123.222 135.443 122.63C135.443 122.103 135.431 121.235 135.382 120.887H137.199ZM134.535 120.887C134.502 121.303 134.48 122.268 134.48 122.63C134.48 122.961 134.487 124.05 134.535 124.554H133.674L132.291 122.508C132.174 122.344 132.093 122.184 132.062 122.005V123.167C132.062 123.61 132.074 124.238 132.114 124.554H131.129C131.191 123.999 131.197 122.946 131.197 122.63C131.197 122.283 131.179 121.303 131.151 120.887H132.269L133.437 122.794C133.497 122.886 133.52 122.933 133.546 123.016V120.887H134.535ZM128.351 121.351C128.172 121.351 127.997 121.362 127.909 121.377C127.89 121.853 127.882 122.085 127.882 122.63C127.882 123.29 127.882 123.533 127.909 124.059H128.439C129.063 124.059 129.358 123.873 129.358 123.494C129.358 123.072 128.974 122.873 128.466 122.873H128.16L128.372 122.32H128.593C128.85 122.32 129.197 122.184 129.197 121.853C129.197 121.498 128.877 121.351 128.351 121.351ZM128.905 120.887C129.584 120.887 130.325 121.134 130.325 121.758C130.325 122.096 130.033 122.406 129.597 122.555C130.175 122.766 130.507 123.1 130.507 123.533C130.507 124.298 129.584 124.554 128.716 124.554H126.728C126.778 124.078 126.791 123.391 126.791 122.63C126.791 122.128 126.785 121.362 126.736 120.887H128.905Z" fill="black"/>
<path fill-rule="evenodd" clip-rule="evenodd" d="M113.242 109.155C111.916 109.155 110.84 108.076 110.84 106.746V75.4891C110.84 74.1582 111.916 73.0798 113.242 73.0798C114.569 73.0798 115.644 74.1582 115.644 75.4891V106.746C115.644 108.076 114.569 109.155 113.242 109.155Z" fill="black"/>
<path fill-rule="evenodd" clip-rule="evenodd" d="M179.981 93.8447C179.968 88.4841 175.617 84.1151 170.271 84.1151C167.356 84.1151 164.744 85.4165 162.962 87.4635C161.181 85.4165 158.569 84.1151 155.653 84.1151C150.303 84.1151 145.949 88.4841 145.943 93.8509L145.942 106.746C145.942 108.076 147.017 109.155 148.344 109.155C149.67 109.155 150.745 108.076 150.745 106.746V93.8599C150.745 91.1456 152.948 88.9334 155.653 88.9334C158.359 88.9334 160.561 91.1456 160.561 93.8599L160.562 106.746C160.562 108.076 161.636 109.155 162.962 109.155C164.289 109.155 165.364 108.076 165.364 106.746V93.8555C165.365 91.1431 167.566 88.9334 170.271 88.9334C172.976 88.9334 175.179 91.1489 175.179 93.8631L175.179 106.746C175.179 108.076 176.255 109.155 177.581 109.155C178.908 109.155 179.983 108.076 179.983 106.746L179.981 93.8447Z" fill="black"/>
<path fill-rule="evenodd" clip-rule="evenodd" d="M80.7416 104.336C78.036 104.336 76.0798 102.128 76.0798 99.4137V88.9742H81.0657C82.2748 88.9742 83.2547 87.9912 83.2547 86.7782C83.2547 85.5649 82.2748 84.5822 81.0657 84.5822H76.0798V79.2111C76.0798 77.8805 75.0049 76.8021 73.6782 76.8021C72.3519 76.8021 71.2766 77.8805 71.2766 79.2111V99.4137C71.2766 104.785 75.3869 109.155 80.7416 109.155C82.0683 109.155 83.1435 108.076 83.1435 106.746C83.1435 105.415 82.0683 104.336 80.7416 104.336Z" fill="black"/>
<path fill-rule="evenodd" clip-rule="evenodd" d="M123.692 94.4748C124.301 90.8814 127.632 88.3271 131.21 88.3271C135.021 88.3271 137.947 91.5711 138.49 94.4748H123.692ZM143.04 95.6106C143.04 88.7341 136.923 84.1147 131.21 84.1147C124.355 84.1147 118.777 89.7104 118.777 96.5882C118.777 103.752 124.222 109.155 131.442 109.155C135.271 109.155 138.133 107.776 139.486 106.961C140.129 106.584 140.662 105.814 140.662 104.948C140.662 103.846 139.775 102.795 138.469 102.795C138.09 102.795 137.621 102.939 137.247 103.126C135.767 103.951 133.771 104.849 131.442 104.849C127.724 104.849 124.458 102.596 123.695 98.8665H140.027C141.632 98.8665 143.04 97.3454 143.04 95.6106Z" fill="black"/>
<path fill-rule="evenodd" clip-rule="evenodd" d="M49.0246 94.4748C49.6336 90.8814 52.9654 88.3271 56.5434 88.3271C60.3544 88.3271 63.2797 91.5711 63.8229 94.4748H49.0246ZM68.3732 95.6106C68.3732 88.7341 62.2563 84.1147 56.543 84.1147C49.6875 84.1147 44.1099 89.7104 44.1099 96.5882C44.1099 103.752 49.5548 109.155 56.7754 109.155C60.6037 109.155 63.4661 107.776 64.819 106.961C65.4615 106.584 65.995 105.814 65.995 104.948C65.995 103.846 65.1075 102.795 63.8021 102.795C63.4229 102.795 62.9531 102.939 62.58 103.126C61.0997 103.951 59.1032 104.849 56.775 104.849C53.0564 104.849 49.7911 102.596 49.0278 98.8665H65.3604C66.9656 98.8665 68.3732 97.3454 68.3732 95.6106Z" fill="black"/>
<path fill-rule="evenodd" clip-rule="evenodd" d="M88.7394 94.4748C89.3488 90.8814 92.6803 88.3271 96.2582 88.3271C100.069 88.3271 102.995 91.5711 103.538 94.4748H88.7394ZM108.088 95.6106C108.088 88.7341 101.971 84.1147 96.2582 84.1147C89.4027 84.1147 83.8247 89.7104 83.8247 96.5882C83.8247 103.752 89.27 109.155 96.4902 109.155C100.319 109.155 103.181 107.776 104.534 106.961C105.176 106.584 105.71 105.814 105.71 104.948C105.71 103.846 104.823 102.795 103.517 102.795C103.138 102.795 102.669 102.939 102.295 103.126C100.815 103.951 98.8184 104.849 96.4902 104.849C92.7713 104.849 89.506 102.596 88.743 98.8665H105.075C106.68 98.8665 108.088 97.3454 108.088 95.6106Z" fill="black"/>
<mask id="mask0" mask-type="alpha" maskUnits="userSpaceOnUse" x="20" y="84" width="22" height="26">
<path d="M20 84.1147H41.9789V109.155H20V84.1147Z" fill="white"/>
</mask>
<g mask="url(#mask0)">
<path fill-rule="evenodd" clip-rule="evenodd" d="M32.4603 109.155C29.268 109.155 26.0753 107.935 23.6453 105.493C18.7842 100.611 18.7842 92.666 23.6453 87.7836C25.9991 85.4179 29.1298 84.1147 32.4599 84.1147C35.79 84.1147 38.9207 85.4179 41.2752 87.7836C42.213 88.7258 42.213 90.2535 41.2748 91.1947C40.337 92.137 38.8164 92.137 37.8789 91.1947C36.4314 89.7407 34.5068 88.9406 32.4599 88.9406C30.4134 88.9406 28.4884 89.7407 27.0416 91.1947C24.0533 94.1959 24.0533 99.0809 27.0416 102.082C30.0302 105.082 34.8913 105.082 37.8789 102.082C38.8171 101.14 40.337 101.14 41.2752 102.082C42.213 103.025 42.213 104.552 41.2748 105.493C38.8445 107.935 35.6522 109.155 32.4603 109.155Z" fill="black"/>
</g>
<path fill-rule="evenodd" clip-rule="evenodd" d="M40.2287 117.268H23.6734C22.4643 117.268 21.4844 116.285 21.4844 115.072C21.4844 113.859 22.4643 112.876 23.6734 112.876H40.2287C41.4374 112.876 42.4177 113.859 42.4177 115.072C42.4177 116.285 41.4374 117.268 40.2287 117.268Z" fill="black"/>
</g>
<defs>
<clipPath id="clip0">
<rect width="160" height="53.8318" fill="white" transform="translate(20 73)"/>
</clipPath>
</defs>
</svg>

<svg width="200" height="200" fill="none" xmlns="http://www.w3.org/2000/svg"><path fill="#fff" d="M0 0h200v200H0z"/><g clip-path="url(#clip0)"><path fill-rule="evenodd" clip-rule="evenodd" d="M169.782 126.832h9.969v-9.969h-9.969v9.969zm7.309-6.551c.201-.099.4-.198.698-.374.229.346.288 1.143.296 1.778.205-.404.448-1.913.342-2.188.316-.205.365-.304.428-.43a.872.872 0 01.038-.074l-.23.018c-.236.018-.397.03-.553.08-.512-.315-1.576-.638-2.442-.705.267.111 1.364.706 1.503.896-.587.081-1.692.414-2.251.71.642-.144 1.542-.216 2.157-.246a7.194 7.194 0 01-.764.955c.344-.207.562-.314.778-.42zm-4.708 4.496c.28.264.533.417.892.549a3.593 3.593 0 01-.984-.156c-.024.232-.01.411.054.633a2.654 2.654 0 01-.585-.836 5.854 5.854 0 01-.766-.418c.185-.084.348-.144.572-.204-.071-.401-.049-.762.005-1.265.104.477.195.814.399 1.174.25-.048.46-.082.75-.123-.158.23-.254.414-.337.646zm1.812-4.474a2.063 2.063 0 00-.277.532c.917.127 1.653.6 1.653.6-.802-.145-1.226-.127-1.52-.101-.301.028-.357.069-.357.069-.213.469-.345 1.28-.345 1.28-.146-.345-.356-1.052-.356-1.052-.404.216-1.329 1.09-1.329 1.09.51-1.025 1.025-1.492 1.025-1.492-.174-.179-.642-.267-.983-.286.176-.074.634-.157.981-.169.347-.016.561.007.561.007.31-.245.783-.455.947-.478zm.49 4.983c.178-.2.316-.375.476-.597l.004.06c.008.126.014.228.028.344.294-.138.512-.268.767-.448a7.398 7.398 0 01-.737.67c.026.122.044.189.071.283a1.965 1.965 0 01-.42.026c-.3.179-.715.312-1.029.39.186-.117.35-.243.539-.422a2.2 2.2 0 01-.55-.189c.295-.001.541-.033.851-.117zm-56.865-3.89c0 .241-.018.483-.018.722a6 6 0 00.018.443c.037.005.228.005.351.005.386 0 .92-.106.92-.604 0-.485-.548-.572-.962-.572-.053 0-.256 0-.309.006zm.655-.509c.792 0 1.751.221 1.751 1.075 0 .748-.68 1.12-2.055 1.12-.083 0-.306 0-.369-.006.027.511.022 1.129.055 1.477h-1.2c.048-.503.061-1.332.061-1.924 0-.527-.013-1.395-.061-1.742h1.818zm-4.854 0c-.02.247-.029.498-.029.756v1.747c0 .475.152.754.622.754.405 0 .804-.162.804-.909v-1.779c0-.372-.008-.413-.031-.569h1.009c-.039.32-.039.918-.039 1.512v1.041c0 .842-.59 1.208-1.759 1.208-1.059 0-1.708-.225-1.708-1.265v-1.338c0-.345-.015-.898-.054-1.158h1.185zm8.91.374c-.527 0-.858.518-.858 1.465 0 .944.331 1.451.858 1.451.525 0 .848-.507.848-1.451 0-.947-.323-1.465-.848-1.465zm0 3.397c-1.139 0-1.992-.786-1.992-1.932 0-1.158.853-1.935 1.992-1.935 1.134 0 1.987.777 1.987 1.935 0 1.146-.853 1.932-1.987 1.932zm-12.575-3.771c.803 0 1.758.285 1.758 1.137 0 .454-.337.781-.869.991.11.192.998 1.346 1.174 1.538h-1.307a22.45 22.45 0 00-1.111-1.851c.527.07.979-.18.979-.686 0-.486-.556-.626-.825-.626-.127 0-.352 0-.438.006a36.4 36.4 0 00-.026 1.233c0 .316 0 1.37.063 1.924h-1.22c.06-.542.074-1.191.074-1.924 0-.618-.01-1.368-.063-1.742h1.811zm-2.548 1.885c-.02.359-.042 1.121-.053 1.559-.394.2-1.013.317-1.608.317-1.358 0-2.228-.855-2.228-1.91 0-1.109.911-1.947 2.397-1.947.339 0 .848.054 1.206.141l-.262.725a2.075 2.075 0 00-.958-.285c-.855 0-1.161.76-1.161 1.374 0 1.025.55 1.361 1.168 1.361.071 0 .308-.008.386-.029 0-.443-.007-1.006-.04-1.306h1.153zm57.497-1.98c.469 0 .923.067 1.209.156v.933c-.401-.231-.794-.431-1.315-.431-.412 0-.442.167-.442.29 0 .618 2.083.626 2.083 1.736 0 .719-.673 1.173-1.791 1.173-.503 0-.978-.101-1.302-.22v-.89c.766.362 1.173.479 1.527.479.284 0 .495-.13.495-.377 0-.701-2.075-.633-2.075-1.822 0-.651.651-1.027 1.611-1.027zm-3.605 2.403c-.143-.355-.34-.795-.435-1.103-.1.314-.32.794-.427 1.103.135.006.317.013.441.013.171 0 .256-.007.421-.013zm.1-2.308c.135.433 1.344 3.075 1.622 3.667h-1.201c-.047-.144-.144-.341-.319-.804-.183-.007-.372-.007-.623-.007-.245 0-.423.007-.618.014-.109.302-.204.541-.292.797h-1.042c.2-.455 1.405-3.081 1.618-3.667h.855zm-4.766.464a3.13 3.13 0 00-.441.026c-.021.476-.028.708-.028 1.253 0 .66 0 .903.028 1.429h.529c.623 0 .921-.186.921-.565 0-.422-.385-.621-.896-.621h-.304l.209-.553h.224c.259 0 .603-.136.603-.467 0-.355-.318-.502-.845-.502zm.555-.464c.676 0 1.417.247 1.417.871 0 .338-.293.648-.726.797.579.211.909.545.909.978 0 .765-.924 1.021-1.791 1.021h-1.986c.047-.476.061-1.163.061-1.924 0-.502-.008-1.268-.056-1.743h2.172zm-2.964 0a38.778 38.778 0 00-.047 1.749c0 .325 0 1.414.047 1.918h-1.206c.061-.555.066-1.608.066-1.918 0-.347-.019-1.333-.044-1.749h1.184zm-3.742 0c.799 0 1.756.287 1.756 1.138 0 .454-.339.78-.868.991.108.192.995 1.346 1.172 1.538h-1.307a23.32 23.32 0 00-1.106-1.851c.522.07.978-.18.978-.685 0-.486-.557-.626-.829-.626-.122 0-.354 0-.436.005-.018.449-.025.987-.025 1.233 0 .316 0 1.369.058 1.924h-1.217c.06-.541.073-1.191.073-1.924 0-.618-.007-1.367-.059-1.743h1.81zm-3.967 2.308c-.144-.355-.342-.795-.435-1.103-.102.314-.317.794-.428 1.103.137.006.319.013.442.013.168 0 .259-.007.421-.013zm.1-2.308c.137.433 1.343 3.075 1.621 3.667h-1.198c-.048-.144-.143-.341-.32-.804-.183-.007-.373-.007-.624-.007-.244 0-.421.007-.619.014-.107.302-.201.541-.29.797h-1.043c.203-.455 1.403-3.081 1.621-3.667h.852zm-4.541.51c0 .242-.012.484-.012.723 0 .174.005.31.012.442.041.005.231.005.354.005.386 0 .923-.106.923-.604 0-.485-.55-.571-.965-.571-.053 0-.255 0-.312.005zm.658-.51c.795 0 1.751.222 1.751 1.076 0 .748-.679 1.12-2.055 1.12-.081 0-.305 0-.366-.005.026.51.02 1.127.053 1.476h-1.199c.047-.504.06-1.332.06-1.924 0-.527-.013-1.395-.06-1.743h1.816zm-6.191.51c0 .242-.013.484-.013.723 0 .174.007.31.013.442.041.005.231.005.353.005.387 0 .921-.106.921-.604 0-.485-.55-.571-.963-.571-.053 0-.257 0-.311.005zm.657-.51c.794 0 1.752.222 1.752 1.076 0 .748-.679 1.12-2.056 1.12-.083 0-.304 0-.366-.005.026.51.021 1.127.054 1.476h-1.201c.049-.504.061-1.332.061-1.924 0-.527-.012-1.395-.061-1.743h1.817zm-2.664 0a32.394 32.394 0 00-.055 1.743c0 .331.007 1.42.055 1.924h-.861l-1.383-2.046a1.22 1.22 0 01-.229-.503v1.162c0 .443.012 1.071.052 1.387h-.985c.062-.555.068-1.608.068-1.924 0-.347-.018-1.327-.046-1.743h1.118l1.168 1.907a.77.77 0 01.109.222v-2.129h.989zm-6.184.464c-.179 0-.354.011-.442.026-.019.476-.027.708-.027 1.253 0 .66 0 .903.027 1.429h.53c.624 0 .919-.186.919-.565 0-.422-.384-.621-.892-.621h-.306l.212-.553h.221c.257 0 .604-.136.604-.467 0-.355-.32-.502-.846-.502zm.554-.464c.679 0 1.42.247 1.42.871 0 .338-.292.648-.728.797.578.211.91.545.91.978 0 .765-.923 1.021-1.791 1.021h-1.988c.05-.476.063-1.163.063-1.924 0-.502-.006-1.268-.055-1.743h2.169zm-15.663-11.732a2.406 2.406 0 01-2.402-2.409V75.489c0-1.33 1.076-2.41 2.402-2.41a2.405 2.405 0 012.402 2.41v31.257a2.406 2.406 0 01-2.402 2.409zm66.739-15.31c-.013-5.36-4.364-9.73-9.71-9.73-2.915 0-5.527 1.302-7.309 3.349-1.781-2.047-4.393-3.349-7.309-3.349-5.35 0-9.704 4.37-9.71 9.736l-.001 12.895a2.406 2.406 0 002.402 2.409 2.405 2.405 0 002.401-2.409V93.86c0-2.714 2.203-4.927 4.908-4.927 2.706 0 4.908 2.213 4.908 4.927l.001 12.886a2.404 2.404 0 002.4 2.409 2.406 2.406 0 002.402-2.409v-12.89c.001-2.713 2.202-4.923 4.907-4.923s4.908 2.216 4.908 4.93v12.883a2.406 2.406 0 002.402 2.409 2.406 2.406 0 002.402-2.409l-.002-12.901zm-99.239 10.491c-2.706 0-4.662-2.208-4.662-4.922v-10.44h4.986c1.209 0 2.189-.983 2.189-2.196s-.98-2.196-2.19-2.196H76.08v-5.37a2.405 2.405 0 00-2.402-2.41 2.405 2.405 0 00-2.401 2.41v20.202c0 5.371 4.11 9.741 9.465 9.741a2.406 2.406 0 002.401-2.409 2.406 2.406 0 00-2.401-2.41zm42.95-9.861c.609-3.594 3.94-6.148 7.518-6.148 3.811 0 6.737 3.244 7.28 6.148h-14.798zm19.348 1.136c0-6.877-6.117-11.496-11.83-11.496-6.855 0-12.433 5.595-12.433 12.473 0 7.164 5.445 12.567 12.665 12.567 3.829 0 6.691-1.379 8.044-2.194.643-.377 1.176-1.147 1.176-2.013a2.167 2.167 0 00-2.193-2.153c-.379 0-.848.144-1.222.331-1.48.825-3.476 1.723-5.805 1.723-3.718 0-6.984-2.253-7.747-5.983h16.332c1.605 0 3.013-1.52 3.013-3.255zm-94.015-1.136c.609-3.594 3.94-6.148 7.518-6.148 3.811 0 6.737 3.244 7.28 6.148H49.025zm19.348 1.136c0-6.877-6.117-11.496-11.83-11.496-6.855 0-12.433 5.595-12.433 12.473 0 7.164 5.445 12.567 12.665 12.567 3.829 0 6.691-1.379 8.044-2.194.642-.377 1.176-1.147 1.176-2.013a2.168 2.168 0 00-2.193-2.153c-.38 0-.849.144-1.222.331-1.48.825-3.477 1.723-5.805 1.723-3.719 0-6.984-2.253-7.747-5.983H65.36c1.606 0 3.013-1.52 3.013-3.255zm20.367-1.136c.609-3.594 3.94-6.148 7.518-6.148 3.811 0 6.737 3.244 7.28 6.148H88.739zm19.348 1.136c0-6.877-6.117-11.496-11.83-11.496-6.855 0-12.433 5.595-12.433 12.473 0 7.164 5.445 12.567 12.665 12.567 3.829 0 6.691-1.379 8.044-2.194.642-.377 1.176-1.147 1.176-2.013a2.167 2.167 0 00-2.193-2.153c-.379 0-.848.144-1.222.331-1.48.825-3.477 1.723-5.805 1.723-3.719 0-6.984-2.253-7.747-5.983h16.332c1.605 0 3.013-1.52 3.013-3.255z" fill="#000"/><mask id="mask0" maskUnits="userSpaceOnUse" x="20" y="84" width="22" height="26"><path d="M20 84.115h21.979v25.04H20v-25.04z" fill="#fff"/></mask><g mask="url(#mask0)"><path fill-rule="evenodd" clip-rule="evenodd" d="M32.46 109.155c-3.192 0-6.385-1.22-8.815-3.662-4.86-4.882-4.86-12.827 0-17.71a12.353 12.353 0 018.815-3.668c3.33 0 6.46 1.303 8.815 3.669a2.42 2.42 0 010 3.41 2.393 2.393 0 01-3.396 0 7.596 7.596 0 00-5.42-2.253c-2.046 0-3.97.8-5.417 2.254-2.989 3-2.989 7.886 0 10.887 2.988 3 7.85 3 10.837 0a2.394 2.394 0 013.396 0 2.42 2.42 0 010 3.411 12.396 12.396 0 01-8.815 3.662z" fill="#000"/></g><path fill-rule="evenodd" clip-rule="evenodd" d="M40.229 117.268H23.673a2.192 2.192 0 01-2.189-2.196c0-1.213.98-2.196 2.19-2.196h16.555c1.208 0 2.189.983 2.189 2.196s-.98 2.196-2.19 2.196z" fill="#000"/></g><defs><clipPath id="clip0"><path fill="#fff" transform="translate(20 73)" d="M0 0h160v53.832H0z"/></clipPath></defs></svg>
